icon-themes/breeze_svg/cmd/sc_break.svg

<svg viewBox="0 0 16 16" xmlns="http://www.w3.org/2000/svg"><path d="m13 2-11 4 5 8h1.167788l-.605288-1-4.0625-6.46875 7.90625-2.90625-1.34375 4.0625-.15625.375.1875.375 2.28125 4.5625.481182 1h1.143818l-3-6z" fill="#4d4d4d"/></svg>

<svg viewBox="0 0 16 16" xmlns="http://www.w3.org/2000/svg">
 <path
   style="fill:#4d4d4d"
   d="M 13,2 2,6 7,14 H 8.167788 L 7.5625,13 3.5,6.53125 11.40625,3.625 10.0625,7.6875 9.90625,8.0625 10.09375,8.4375 12.375,13 12.856182,14 H 14 L 11,8 Z" />
</svg>
